svg/fluentui-system-icons/ic_fluent_add_circle_32_filled.svg

<svg width="32" height="32" viewBox="0 0 32 32" fill="none" xmlns="http://www.w3.org/2000/svg">
<path d="M16 30C23.732 30 30 23.732 30 16C30 8.26801 23.732 2 16 2C8.26801 2 2 8.26801 2 16C2 23.732 8.26801 30 16 30ZM15 11C15 10.4477 15.4477 10 16 10C16.5523 10 17 10.4477 17 11V15H21C21.5523 15 22 15.4477 22 16C22 16.5523 21.5523 17 21 17H17V21C17 21.5523 16.5523 22 16 22C15.4477 22 15 21.5523 15 21V17H11C10.4477 17 10 16.5523 10 16C10 15.4477 10.4477 15 11 15H15V11Z" fill="#212121"/>
</svg>

<svg xmlns="http://www.w3.org/2000/svg" width="32" height="32"><path d="M16 30c7.732 0 14-6.268 14-14S23.732 2 16 2 2 8.268 2 16s6.268 14 14 14Zm-1-19a1 1 0 1 1 2 0v4h4a1 1 0 1 1 0 2h-4v4a1 1 0 1 1-2 0v-4h-4a1 1 0 1 1 0-2h4v-4Z"/></svg>
